X:306
T: Shan Dinna or the Silly Old Man
T: Seanduine (An)
N: O'Farrell's Pocket Companion v.4 (Sky ed. p.136)
N: "Irish"
M: 6/8
L: 1/8
R: jig
Q: 160 % "rather slow"
K: D
F/E/|DEF/G/ A G/F/E/D/| DFF F2A| DEF/G/ A G/F/E/D/| EFE E2F|
DFd B A/G/F/E/| DFA d2f| e>fd cdB| ABA/G/ F2 :|
P:2
A| d>ed def| FAA A2F| dfa f/e/d/c/B/A/| B>cB B2A|
ABc d A/G/F/E/| DFA dfa| e>fd cdB| ABA/G/ F2 :|
P:3
A| DFA AFA| DFA dB/c/d| DFA AGF| E>FE E2F|
DEF/G/ A G/F/E/D/| DFA dfa| efd cdB| ABA/G/ F2 :|
P:4
A| fdd edd| FAA A2F| dfd f/e/d/c/B/A/| BcB B2A|
ABc d A/G/F/E/| DFA d2f| e>fd c>dB| ABG F2 :|
